Newaita/actions/16/view-calendar.svg

<?xml version="1.0" encoding="UTF-8"?>
<svg xmlns="http://www.w3.org/2000/svg" xmlns:xlink="http://www.w3.org/1999/xlink" width="16pt" height="16pt" viewBox="0 0 16 16" version="1.1">
<defs>
<filter id="alpha" filterUnits="objectBoundingBox" x="0%" y="0%" width="100%" height="100%">
  <feColorMatrix type="matrix" in="SourceGraphic" values="0 0 0 0 1 0 0 0 0 1 0 0 0 0 1 0 0 0 1 0"/>
</filter>
<mask id="mask0">
  <g filter="url(#alpha)">
<rect x="0" y="0" width="16" height="16" style="fill:rgb(0%,0%,0%);fill-opacity:0.988235;stroke:none;"/>
  </g>
</mask>
<clipPath id="clip1">
  <rect x="0" y="0" width="16" height="16"/>
</clipPath>
<g id="surface5" clip-path="url(#clip1)">
<path style=" stroke:none;fill-rule:nonzero;fill:rgb(25.882354%,25.882354%,25.882354%);fill-opacity:1;" d="M 0.660156 4.09375 L 0.660156 14.015625 C 0.660156 14.75 1.25 15.339844 1.984375 15.339844 L 13.890625 15.339844 C 14.625 15.339844 15.214844 14.75 15.214844 14.015625 L 15.214844 4.09375 L 14.222656 4.09375 L 14.222656 13.6875 C 14.222656 14.050781 13.925781 14.347656 13.5625 14.347656 L 2.316406 14.347656 C 1.949219 14.347656 1.652344 14.050781 1.652344 13.6875 L 1.652344 4.09375 Z M 0.660156 4.09375 "/>
</g>
<mask id="mask1">
  <g filter="url(#alpha)">
<rect x="0" y="0" width="16" height="16" style="fill:rgb(0%,0%,0%);fill-opacity:0.988235;stroke:none;"/>
  </g>
</mask>
<clipPath id="clip2">
  <rect x="0" y="0" width="16" height="16"/>
</clipPath>
<g id="surface8" clip-path="url(#clip2)">
<path style=" stroke:none;fill-rule:nonzero;fill:rgb(61.176473%,80.000001%,39.607844%);fill-opacity:1;" d="M 1.984375 0.785156 C 1.25 0.785156 0.660156 1.375 0.660156 2.109375 L 0.660156 4.09375 L 15.214844 4.09375 L 15.214844 2.109375 C 15.214844 1.375 14.625 0.785156 13.890625 0.785156 Z M 2.976562 1.449219 C 3.527344 1.449219 3.96875 1.890625 3.96875 2.441406 C 3.96875 2.988281 3.527344 3.433594 2.976562 3.433594 C 2.425781 3.433594 1.984375 2.988281 1.984375 2.441406 C 1.984375 1.890625 2.425781 1.449219 2.976562 1.449219 Z M 12.898438 1.449219 C 13.449219 1.449219 13.890625 1.890625 13.890625 2.441406 C 13.890625 2.988281 13.449219 3.433594 12.898438 3.433594 C 12.351562 3.433594 11.90625 2.988281 11.90625 2.441406 C 11.90625 1.890625 12.351562 1.449219 12.898438 1.449219 Z M 12.898438 1.449219 "/>
</g>
</defs>
<g id="surface1">
<use xlink:href="#surface5" mask="url(#mask0)"/>
<use xlink:href="#surface8" mask="url(#mask1)"/>
<path style=" stroke:none;fill-rule:nonzero;fill:rgb(25.882354%,25.882354%,25.882354%);fill-opacity:1;" d="M 2.976562 5.417969 L 3.96875 5.417969 C 4.152344 5.417969 4.300781 5.566406 4.300781 5.746094 L 4.300781 6.738281 C 4.300781 6.921875 4.152344 7.070312 3.96875 7.070312 L 2.976562 7.070312 C 2.792969 7.070312 2.644531 6.921875 2.644531 6.738281 L 2.644531 5.746094 C 2.644531 5.566406 2.792969 5.417969 2.976562 5.417969 Z M 2.976562 5.417969 "/>
<path style=" stroke:none;fill-rule:nonzero;fill:rgb(25.882354%,25.882354%,25.882354%);fill-opacity:1;" d="M 5.953125 5.417969 L 6.945312 5.417969 C 7.128906 5.417969 7.277344 5.566406 7.277344 5.746094 L 7.277344 6.738281 C 7.277344 6.921875 7.128906 7.070312 6.945312 7.070312 L 5.953125 7.070312 C 5.769531 7.070312 5.621094 6.921875 5.621094 6.738281 L 5.621094 5.746094 C 5.621094 5.566406 5.769531 5.417969 5.953125 5.417969 Z M 5.953125 5.417969 "/>
<path style=" stroke:none;fill-rule:nonzero;fill:rgb(93.725491%,32.549021%,31.37255%);fill-opacity:1;" d="M 8.730469 5.085938 L 10.121094 5.085938 C 10.378906 5.085938 10.585938 5.292969 10.585938 5.550781 L 10.585938 6.9375 C 10.585938 7.195312 10.378906 7.402344 10.121094 7.402344 L 8.730469 7.402344 C 8.476562 7.402344 8.269531 7.195312 8.269531 6.9375 L 8.269531 5.550781 C 8.269531 5.292969 8.476562 5.085938 8.730469 5.085938 Z M 8.730469 5.085938 "/>
<path style=" stroke:none;fill-rule:nonzero;fill:rgb(25.882354%,25.882354%,25.882354%);fill-opacity:1;" d="M 11.90625 5.417969 L 12.898438 5.417969 C 13.082031 5.417969 13.230469 5.566406 13.230469 5.746094 L 13.230469 6.738281 C 13.230469 6.921875 13.082031 7.070312 12.898438 7.070312 L 11.90625 7.070312 C 11.726562 7.070312 11.578125 6.921875 11.578125 6.738281 L 11.578125 5.746094 C 11.578125 5.566406 11.726562 5.417969 11.90625 5.417969 Z M 11.90625 5.417969 "/>
<path style=" stroke:none;fill-rule:nonzero;fill:rgb(25.882354%,25.882354%,25.882354%);fill-opacity:1;" d="M 2.976562 8.394531 L 3.96875 8.394531 C 4.152344 8.394531 4.300781 8.542969 4.300781 8.726562 L 4.300781 9.71875 C 4.300781 9.898438 4.152344 10.046875 3.96875 10.046875 L 2.976562 10.046875 C 2.792969 10.046875 2.644531 9.898438 2.644531 9.71875 L 2.644531 8.726562 C 2.644531 8.542969 2.792969 8.394531 2.976562 8.394531 Z M 2.976562 8.394531 "/>
<path style=" stroke:none;fill-rule:nonzero;fill:rgb(25.882354%,25.882354%,25.882354%);fill-opacity:1;" d="M 5.953125 8.394531 L 6.945312 8.394531 C 7.128906 8.394531 7.277344 8.542969 7.277344 8.726562 L 7.277344 9.71875 C 7.277344 9.898438 7.128906 10.046875 6.945312 10.046875 L 5.953125 10.046875 C 5.769531 10.046875 5.621094 9.898438 5.621094 9.71875 L 5.621094 8.726562 C 5.621094 8.542969 5.769531 8.394531 5.953125 8.394531 Z M 5.953125 8.394531 "/>
<path style=" stroke:none;fill-rule:nonzero;fill:rgb(25.882354%,25.882354%,25.882354%);fill-opacity:1;" d="M 8.929688 8.394531 L 9.921875 8.394531 C 10.105469 8.394531 10.253906 8.542969 10.253906 8.726562 L 10.253906 9.71875 C 10.253906 9.898438 10.105469 10.046875 9.921875 10.046875 L 8.929688 10.046875 C 8.746094 10.046875 8.601562 9.898438 8.601562 9.71875 L 8.601562 8.726562 C 8.601562 8.542969 8.746094 8.394531 8.929688 8.394531 Z M 8.929688 8.394531 "/>
<path style=" stroke:none;fill-rule:nonzero;fill:rgb(25.882354%,25.882354%,25.882354%);fill-opacity:1;" d="M 11.90625 8.394531 L 12.898438 8.394531 C 13.082031 8.394531 13.230469 8.542969 13.230469 8.726562 L 13.230469 9.71875 C 13.230469 9.898438 13.082031 10.046875 12.898438 10.046875 L 11.90625 10.046875 C 11.726562 10.046875 11.578125 9.898438 11.578125 9.71875 L 11.578125 8.726562 C 11.578125 8.542969 11.726562 8.394531 11.90625 8.394531 Z M 11.90625 8.394531 "/>
<path style=" stroke:none;fill-rule:nonzero;fill:rgb(25.882354%,25.882354%,25.882354%);fill-opacity:1;" d="M 2.976562 11.371094 L 3.96875 11.371094 C 4.152344 11.371094 4.300781 11.519531 4.300781 11.703125 L 4.300781 12.695312 C 4.300781 12.875 4.152344 13.023438 3.96875 13.023438 L 2.976562 13.023438 C 2.792969 13.023438 2.644531 12.875 2.644531 12.695312 L 2.644531 11.703125 C 2.644531 11.519531 2.792969 11.371094 2.976562 11.371094 Z M 2.976562 11.371094 "/>
<path style=" stroke:none;fill-rule:nonzero;fill:rgb(25.882354%,25.882354%,25.882354%);fill-opacity:1;" d="M 5.953125 11.371094 L 6.945312 11.371094 C 7.128906 11.371094 7.277344 11.519531 7.277344 11.703125 L 7.277344 12.695312 C 7.277344 12.875 7.128906 13.023438 6.945312 13.023438 L 5.953125 13.023438 C 5.769531 13.023438 5.621094 12.875 5.621094 12.695312 L 5.621094 11.703125 C 5.621094 11.519531 5.769531 11.371094 5.953125 11.371094 Z M 5.953125 11.371094 "/>
<path style=" stroke:none;fill-rule:nonzero;fill:rgb(25.882354%,25.882354%,25.882354%);fill-opacity:1;" d="M 8.929688 11.371094 L 9.921875 11.371094 C 10.105469 11.371094 10.253906 11.519531 10.253906 11.703125 L 10.253906 12.695312 C 10.253906 12.875 10.105469 13.023438 9.921875 13.023438 L 8.929688 13.023438 C 8.746094 13.023438 8.601562 12.875 8.601562 12.695312 L 8.601562 11.703125 C 8.601562 11.519531 8.746094 11.371094 8.929688 11.371094 Z M 8.929688 11.371094 "/>
<path style=" stroke:none;fill-rule:nonzero;fill:rgb(25.882354%,25.882354%,25.882354%);fill-opacity:1;" d="M 11.90625 11.371094 L 12.898438 11.371094 C 13.082031 11.371094 13.230469 11.519531 13.230469 11.703125 L 13.230469 12.695312 C 13.230469 12.875 13.082031 13.023438 12.898438 13.023438 L 11.90625 13.023438 C 11.726562 13.023438 11.578125 12.875 11.578125 12.695312 L 11.578125 11.703125 C 11.578125 11.519531 11.726562 11.371094 11.90625 11.371094 Z M 11.90625 11.371094 "/>
</g>
</svg>

<svg xmlns="http://www.w3.org/2000/svg" xmlns:xlink="http://www.w3.org/1999/xlink" width="16pt" height="16pt" viewBox="0 0 16 16"><defs><filter id="a" filterUnits="objectBoundingBox" x="0%" y="0%" width="100%" height="100%"><feColorMatrix in="SourceGraphic" values="0 0 0 0 1 0 0 0 0 1 0 0 0 0 1 0 0 0 1 0"/></filter><mask id="e"><path fill-opacity=".988" d="M0 0h16v16H0z" filter="url(#a)"/></mask><clipPath id="b"><path d="M0 0h16v16H0z"/></clipPath><g id="d" clip-path="url(#b)"><path d="M.66 4.094v9.922c0 .734.59 1.324 1.324 1.324h11.907a1.32 1.32 0 0 0 1.324-1.324V4.094h-.992v9.593c0 .364-.297.66-.66.66H2.316a.663.663 0 0 1-.664-.66V4.095zm0 0" fill="#424242"/></g><mask id="g"><path fill-opacity=".988" d="M0 0h16v16H0z" filter="url(#a)"/></mask><clipPath id="c"><path d="M0 0h16v16H0z"/></clipPath><g id="f" clip-path="url(#c)"><path d="M1.984.785A1.32 1.32 0 0 0 .66 2.11v1.985h14.555V2.109A1.32 1.32 0 0 0 13.89.785zm.993.664a.991.991 0 1 1-.992.992c0-.55.44-.992.992-.992zm9.921 0a.991.991 0 1 1-.992.992c0-.55.446-.992.992-.992zm0 0" fill="#9ccc65"/></g></defs><use xlink:href="#d" mask="url(#e)"/><use xlink:href="#f" mask="url(#g)"/><path d="M2.977 5.418h.992a.33.33 0 0 1 .332.328v.992a.332.332 0 0 1-.332.332h-.992a.332.332 0 0 1-.332-.332v-.992a.33.33 0 0 1 .332-.328zm0 0M5.953 5.418h.992a.33.33 0 0 1 .332.328v.992a.332.332 0 0 1-.332.332h-.992a.332.332 0 0 1-.332-.332v-.992a.33.33 0 0 1 .332-.328zm0 0" fill="#424242"/><path d="M8.73 5.086h1.391c.258 0 .465.207.465.465v1.386a.463.463 0 0 1-.465.465h-1.39a.463.463 0 0 1-.461-.465V5.551c0-.258.207-.465.46-.465zm0 0" fill="#ef5350"/><path d="M11.906 5.418h.992a.33.33 0 0 1 .332.328v.992a.332.332 0 0 1-.332.332h-.992a.33.33 0 0 1-.328-.332v-.992a.33.33 0 0 1 .328-.328zm0 0M2.977 8.395h.992c.183 0 .332.148.332.332v.992a.33.33 0 0 1-.332.328h-.992a.33.33 0 0 1-.332-.328v-.992c0-.184.148-.332.332-.332zm0 0M5.953 8.395h.992c.184 0 .332.148.332.332v.992a.33.33 0 0 1-.332.328h-.992a.33.33 0 0 1-.332-.328v-.992c0-.184.149-.332.332-.332zm0 0M8.93 8.395h.992c.183 0 .332.148.332.332v.992a.33.33 0 0 1-.332.328H8.93a.328.328 0 0 1-.328-.328v-.992c0-.184.144-.332.328-.332zm0 0M11.906 8.395h.992c.184 0 .332.148.332.332v.992a.33.33 0 0 1-.332.328h-.992a.33.33 0 0 1-.328-.328v-.992a.33.33 0 0 1 .328-.332zm0 0M2.977 11.371h.992c.183 0 .332.149.332.332v.992a.33.33 0 0 1-.332.328h-.992a.33.33 0 0 1-.332-.328v-.992c0-.183.148-.332.332-.332zm0 0M5.953 11.371h.992c.184 0 .332.149.332.332v.992a.33.33 0 0 1-.332.328h-.992a.33.33 0 0 1-.332-.328v-.992c0-.183.149-.332.332-.332zm0 0M8.93 11.371h.992c.183 0 .332.149.332.332v.992a.33.33 0 0 1-.332.328H8.93a.328.328 0 0 1-.328-.328v-.992c0-.183.144-.332.328-.332zm0 0M11.906 11.371h.992c.184 0 .332.149.332.332v.992a.33.33 0 0 1-.332.328h-.992a.33.33 0 0 1-.328-.328v-.992a.33.33 0 0 1 .328-.332zm0 0" fill="#424242"/></svg>
